32x32/apps/stargus.svg

<svg xmlns="http://www.w3.org/2000/svg" width="32" height="32" version="1.1">
 <rect style="opacity:0.2" width="28" height="28" x="2" y="3" rx="1.4" ry="1.4"/>
 <rect style="fill:#4f4f4f" width="28" height="28" x="2" y="2" rx="1.4" ry="1.4"/>
 <path style="opacity:0.2" d="m 16.876143,9.0008197 c -0.07298,0.00241 -0.148406,0.0098 -0.229687,0.020755 -0.914164,0.1232144 -1.165089,0.3470361 -1.724023,1.5343123 -0.376999,0.800807 -0.565602,0.898598 -1.051367,1.004288 -2.270899,-1.6740676 -2.270899,0.881294 -2.717969,1.58965 -0.612812,-0.544097 -1.4086638,-1.720648 -2.1956451,-2.378392 -0.7036085,-0.588062 -1.4001267,-0.9443502 -1.9524022,-0.5732 -0.4376408,0.31054 -0.809472,0.97682 -0.9447267,2.505534 -0.184779,2.088454 0.00193,3.264213 1.3125004,4.993795 1.481984,1.955797 3.6899906,3.912297 7.1859366,6.368293 C 16.073,25.129648 17.341965,26 17.379268,26 c 0.209681,0 -2.026639,-2.939631 -3.381054,-4.443833 -2.024185,-2.248037 -2.397704,-3.047432 -2.441447,-4.057005 -0.0395,-0.912116 0.346379,-1.516324 0.863712,-1.516324 0.187983,0 1.03879,0.646194 1.976954,1.723023 0.781823,0.854909 1.295868,2.05718 1.920165,2.937175 1.322034,1.670465 2.855183,1.883518 3.424804,0.475928 0.551795,-1.369656 0.191643,-3.775084 -1.069774,-5.451169 -0.141919,-0.612973 0.126352,-0.706234 0.746484,-0.705589 0.78439,7.79e-4 2.274064,0.539692 3.169141,1.324174 1.106114,0.969443 1.29251,0.964881 2.523828,3.436136 0.726834,1.458756 1.447739,2.819289 1.602344,3.022968 0.275336,0.362746 0.281122,0.360739 0.285742,-0.09269 -0.232346,-3.775768 -1.52736,-7.369369 -4.327149,-9.948317 C 22.199419,12.285555 20.80971,11.26369 19.584542,10.434136 17.799503,9.225492 17.386989,8.9837518 16.876143,9.0008197 Z"/>
 <path style="fill:#8e8e8e" d="m 16.876143,8.0008197 c -0.07298,0.00241 -0.148406,0.0098 -0.229687,0.020755 -0.914164,0.1232144 -1.165089,0.3470361 -1.724023,1.5343122 -0.376999,0.8008071 -0.565602,0.8985981 -1.051367,1.0042881 -2.270899,-1.6740676 -2.270899,0.881294 -2.717969,1.58965 C 10.540285,11.605728 9.7444332,10.429177 8.9574519,9.7714333 8.2538434,9.1833707 7.5573252,8.8270828 7.0050497,9.1982327 6.5674089,9.5087728 6.1955777,10.175053 6.060323,11.703767 c -0.184779,2.088454 0.00193,3.264213 1.3125004,4.993795 1.481984,1.955797 3.6899906,3.912297 7.1859366,6.368293 C 16.073,24.129648 17.341965,25 17.379268,25 c 0.209681,0 -2.026639,-2.939631 -3.381054,-4.443833 -2.024185,-2.248037 -2.397704,-3.047432 -2.441447,-4.057005 -0.0395,-0.912116 0.346379,-1.516324 0.863712,-1.516324 0.187983,0 1.03879,0.646194 1.976954,1.723023 0.781823,0.854909 1.295868,2.05718 1.920165,2.937175 1.322034,1.670465 2.855183,1.883518 3.424804,0.475928 0.551795,-1.369656 0.191643,-3.775084 -1.069774,-5.451169 -0.141919,-0.612973 0.126352,-0.706234 0.746484,-0.705589 0.78439,7.79e-4 2.274064,0.539692 3.169141,1.324174 1.106114,0.969443 1.29251,0.964881 2.523828,3.436136 0.726834,1.458756 1.447739,2.819289 1.602344,3.022968 0.275336,0.362746 0.281122,0.360739 0.285742,-0.09269 -0.232346,-3.775768 -1.52736,-7.369369 -4.327149,-9.948317 C 22.199419,11.285555 20.80971,10.26369 19.584542,9.4341358 17.799503,8.225492 17.386989,7.9837518 16.876143,8.0008197 Z"/>
 <ellipse style="opacity:0.2" cx="1.037" cy="25.497" rx="1.419" ry="2.058" transform="matrix(0.41803286,-0.90843191,0.66935843,0.74293963,0,0)"/>
 <ellipse style="fill:#00ffff" cx="1.766" cy="25.041" rx="1.419" ry="2.058" transform="matrix(0.41803286,-0.90843191,0.66935843,0.74293963,0,0)"/>
 <path style="fill:#f4f4f7;opacity:0.1" d="M 3.4003906 2 C 2.6247906 2 2 2.6247906 2 3.4003906 L 2 4.4003906 C 2 3.6247906 2.6247906 3 3.4003906 3 L 28.599609 3 C 29.375209 3 30 3.6247906 30 4.4003906 L 30 3.4003906 C 30 2.6247906 29.375209 2 28.599609 2 L 3.4003906 2 z"/>
 <path style="fill:#f4f4f7;opacity:0.1" d="M 16.876953 8 C 16.803973 8.00241 16.727765 8.0105294 16.646484 8.0214844 C 15.73232 8.1446988 15.480809 8.3693645 14.921875 9.5566406 C 14.544876 10.357448 14.356859 10.454857 13.871094 10.560547 C 11.600195 8.8864793 11.599414 11.442035 11.152344 12.150391 C 10.539532 11.606294 9.7440126 10.429228 8.9570312 9.7714844 C 8.2534227 9.1834218 7.5581349 8.8261157 7.0058594 9.1972656 C 6.5682186 9.5078057 6.1958016 10.174411 6.0605469 11.703125 C 6.0011441 12.374521 5.986916 12.947048 6.0292969 13.478516 C 6.0387497 13.223372 6.0352857 12.988637 6.0605469 12.703125 C 6.1958016 11.174411 6.5682186 10.507806 7.0058594 10.197266 C 7.5581349 9.8261154 8.2534228 10.183422 8.9570312 10.771484 C 9.7440125 11.429228 10.539532 12.606294 11.152344 13.150391 C 11.599414 12.442035 11.600195 9.8864793 13.871094 11.560547 C 14.356859 11.454857 14.544876 11.357448 14.921875 10.556641 C 15.480809 9.3693644 15.73232 9.1446988 16.646484 9.0214844 C 16.727765 9.0105294 16.803973 9.00241 16.876953 9 C 17.387799 8.9829321 17.798945 9.2249497 19.583984 10.433594 C 20.809152 11.263148 22.200229 12.286156 22.673828 12.705078 C 25.308836 15.132242 26.59771 18.459583 26.935547 21.990234 C 26.988306 22.008451 26.997372 21.910233 27 21.652344 C 26.767654 17.876576 25.473617 14.284026 22.673828 11.705078 C 22.200229 11.286156 20.809152 10.263148 19.583984 9.4335938 C 17.798945 8.2249499 17.387799 7.9829321 16.876953 8 z M 18.908203 15.029297 C 18.676977 15.107168 18.580824 15.274702 18.671875 15.667969 C 19.433555 16.680037 19.860782 17.95602 19.962891 19.111328 C 20.079886 17.868214 19.725096 16.298532 18.908203 15.029297 z M 11.611328 16.851562 C 11.568106 17.043633 11.546239 17.259819 11.556641 17.5 C 11.600384 18.509573 11.973862 19.308604 13.998047 21.556641 C 14.625481 22.253464 15.432313 23.248983 16.107422 24.126953 C 16.534886 24.418976 17.362081 25 17.378906 25 C 17.588587 25 15.352462 22.060843 13.998047 20.556641 C 12.213579 18.57483 11.73508 17.718199 11.611328 16.851562 z"/>
</svg>

<svg xmlns="http://www.w3.org/2000/svg" width="32" height="32"><rect style="opacity:.2" width="28" height="28" x="2" y="3" rx="1.4" ry="1.4"/><rect style="fill:#4f4f4f" width="28" height="28" x="2" y="2" rx="1.4" ry="1.4"/><path style="opacity:.2" d="M16.876 9c-.073.003-.148.01-.23.022-.914.123-1.165.347-1.724 1.534-.377.8-.565.898-1.05 1.004-2.272-1.674-2.272.881-2.719 1.59-.613-.544-1.409-1.72-2.196-2.379-.703-.588-1.4-.944-1.952-.573-.438.31-.81.977-.945 2.506-.184 2.088.002 3.264 1.313 4.994 1.482 1.955 3.69 3.912 7.186 6.368C16.073 25.13 17.342 26 17.379 26c.21 0-2.026-2.94-3.38-4.444-2.025-2.248-2.398-3.047-2.442-4.057-.04-.912.346-1.516.863-1.516.188 0 1.04.646 1.977 1.723.782.855 1.296 2.057 1.92 2.937 1.323 1.67 2.856 1.884 3.425.476.552-1.37.192-3.775-1.07-5.451-.141-.613.127-.706.747-.706.785.001 2.274.54 3.17 1.324 1.105.97 1.292.965 2.523 3.437.727 1.458 1.448 2.819 1.602 3.022.276.363.282.361.286-.092-.232-3.776-1.527-7.37-4.327-9.949-.474-.418-1.863-1.44-3.088-2.27-1.785-1.209-2.198-1.45-2.709-1.433z"/><path style="fill:#8e8e8e" d="M16.876 8c-.073.003-.148.01-.23.022-.914.123-1.165.347-1.724 1.534-.377.8-.565.898-1.05 1.004-2.272-1.674-2.272.881-2.719 1.59-.613-.544-1.409-1.72-2.196-2.379-.703-.588-1.4-.944-1.952-.573-.438.31-.81.977-.945 2.506-.184 2.088.002 3.264 1.313 4.994 1.482 1.955 3.69 3.912 7.186 6.368C16.073 24.13 17.342 25 17.379 25c.21 0-2.026-2.94-3.38-4.444-2.025-2.248-2.398-3.047-2.442-4.057-.04-.912.346-1.516.863-1.516.188 0 1.04.646 1.977 1.723.782.855 1.296 2.057 1.92 2.937 1.323 1.67 2.856 1.884 3.425.476.552-1.37.192-3.775-1.07-5.451-.141-.613.127-.706.747-.706.785.001 2.274.54 3.17 1.324 1.105.97 1.292.965 2.523 3.437.727 1.458 1.448 2.819 1.602 3.022.276.363.282.361.286-.092-.232-3.776-1.527-7.37-4.327-9.949-.474-.418-1.863-1.44-3.088-2.27-1.785-1.209-2.198-1.45-2.709-1.433z"/><ellipse style="opacity:.2" cx="1.037" cy="25.497" rx="1.419" ry="2.058" transform="matrix(.41803 -.90843 .66936 .74294 0 0)"/><ellipse style="fill:#0ff" cx="1.766" cy="25.041" rx="1.419" ry="2.058" transform="matrix(.41803 -.90843 .66936 .74294 0 0)"/><path style="fill:#f4f4f7;opacity:.1" d="M3.4 2C2.625 2 2 2.625 2 3.4v1C2 3.625 2.625 3 3.4 3h25.2c.775 0 1.4.625 1.4 1.4v-1c0-.775-.625-1.4-1.4-1.4H3.4zM16.877 8c-.073.002-.15.01-.23.021-.915.124-1.166.348-1.725 1.536-.377.8-.565.898-1.05 1.004-2.272-1.675-2.273.881-2.72 1.59-.612-.545-1.408-1.722-2.195-2.38-.704-.588-1.399-.945-1.951-.574-.438.31-.81.977-.945 2.506-.06.672-.074 1.244-.032 1.776.01-.256.006-.49.032-.776.135-1.529.507-2.195.945-2.506.552-.37 1.247-.014 1.951.574.787.658 1.583 1.835 2.195 2.38.447-.709.448-3.265 2.72-1.59.485-.106.673-.204 1.05-1.004.559-1.188.81-1.412 1.724-1.536.082-.01.158-.019.231-.021.51-.017.922.225 2.707 1.434 1.225.83 2.616 1.852 3.09 2.271 2.635 2.427 3.924 5.755 4.262 9.285.052.018.061-.08.064-.338-.232-3.775-1.526-7.368-4.326-9.947-.474-.419-1.865-1.442-3.09-2.271-1.785-1.21-2.196-1.451-2.707-1.434zm2.031 7.03c-.231.077-.327.245-.236.638.762 1.012 1.189 2.288 1.29 3.443.118-1.243-.237-2.812-1.054-4.082zm-7.297 1.822a2.46 2.46 0 0 0-.054.648c.043 1.01.417 1.809 2.441 4.057a47.154 47.154 0 0 1 2.11 2.57c.427.292 1.254.873 1.27.873.21 0-2.026-2.94-3.38-4.443-1.784-1.982-2.263-2.839-2.387-3.705z"/></svg>
